X:54
%%score 1 2
%%staffscale 0.9
T:Barley-Break
M:3/4
L:1/8
K:G
V:1 clef-treble
V:2 clef-bass octave=-1
V:1 
!f![B,G][DFA]|[DGB]2 [B,B]2[B,AB]2|[B,GB]4[FB][Ec]|[DGd]2[Dd]2[Dcd]2|[DBd]4[DA]B|c2c2c2 & G2cBAG|c4d2 & F2EFD2|
V:2 
GD|G,2G2F2|E4DC|B,2B2A2|G4F2|E2edcB|A2GAF2|
V:1 
[DB]2[FA][EG][FA]2|G6 :||[M:6/8]"^Fast"G>FG A>GA & D2x F2x|B>cd d2G & G2x4|A>GA B>AB & D2x D2x|c>de e2A & E2x x2D|
V:2
G2d2"^Repeat piano."[Dc]2|[GB]6:||[M:6/8][GB]3[DA]3|[G,G]3-[G,G]2[GB]|[FA]3G3|[CG]3-[CG]2[DF]|
V:1
B>cde>fg & D2x4|f>edc>BA|B>cdd>e^c & x3E3|[Fd]2[Fd][Fd]3||d2ed2g & G6-|fded3 & G6|
V:2
[G,DG]6|[G,DA]6|[G,DG]3[G,G]3|[DF]2[DA][DA]3||B2cB2e & G6-|d2cB3 & G6|
V:1
B2c B2e & G3-G3|dGcB3|d2d g3 & G3 G3|G2G [FGd]2[EGc]|B>AG AF2 & [DG]x2 C3|[B,G]6||
V:2
[K:clef=bass]d2e d2g & G6-|f2e d3 & G6|[GB]3[FB]3|[EB]3[B,G]2[CG]|[DG]3D3|G,6||

